X: 07125
T: WHIRLWIND
C: Bob McQuillen 27 Mar 90
B: Bob's Note Book 7 #125
R: reel
Z: 2005 John Chambers <jc:trillian.mit.edu>
M: C
L: 1/8
K: D
AB \
| dfdA BAFE | DFAd fdBA | dfaf edfe | dBAF E2fe |
| dfdA BAFA | defd edBA | dfaf gecd | e2d2 d2 :|
|: de \
| fafd edBd | ABdf edBA | dBAF DFAd | fafd e2de |
| fafd edBd | ABde fdBA | dBAF BAFD | EDEF D2 :|
%%begintext align
%% Over in Portsmouth, N.H., there's a great outtfit by the name of Whirlwind
%% Productions putting on great concerts (Altan, Patty Larkin, et al). info
%% 603-436-1031 - Check it out!
%%endtext

%%newpage

%%sep 1 1 500

